!!!OTL: Officium
**kern
*staff1
=--
*clefC1
*k[b-]
0a
0a
=-
1.a
2a
1a
=-
1a
2r
2.a
4a
2cc
=-
1dd
1.cc
2cc
=-
2dd
2cc
1a
0a
=-
!!linebreak:original
1a
2a
2a
1a
=-
2a
2a
1a
1a
=-
2r
2a
2b-
2a
2g
0g
=-
!!linebreak:original
*M3/2
1a
1a
1a
=-
0b-
1f
=-
0a
1a
=-
1a
1a
1a
=-
1g
1g
1g
!!linebreak:original
=-
1g
1g
1g
=-
0f
1b-
=-
0a
1f
=-
*met(c)
*M4/4
1.g
2a
0g
=-
0f
=-
!!linebreak:original
1.a
2a
2a
2cc
=-
2dd
1cc
2dd
4cc
4cc
2dd
=-
2a
4cc
4cc
2a
4cc
4cc
2dd
2a
=-
4a
4a
2a
2a
4cc
4cc
2a
2r
=-
2.a
4a
1g
4f
4e
=-
1f
0g
=-
!!pagebreak:original
1b-
1a
=-
1.b-
2dd
=-
2ee
2cc
1dd
=-
2dd
1dd
2cc
=-
2b-
2cc
1a
=-
1b-
2r
2b-
=-
1a
1.b-
2dd
2ee-
2cc
1dd
1dd
=-
!!linebreak:original
*M3/2
1.dd
2dd
1cc
=-
0dd
1cc
=-
0b-
1a
=-
0g
1b-
=-
0b-
1a
=-
*met(c|)
*M2/2
1.b-
2dd
=-
1dd
1cc#
=-
2cc#
2.dd
4dd
2ee
=-
1ff
1ee
!!linebreak:original
=-
2.dd
4cc
2b-
2a
=-
1g
1f#
=-
2.g
4g
2g
2g
=-
2b-
2a
1dd
=-
1dd
2dd
4dd
4dd
=-
1b-
2a
1.b-
2dd
2ee-
=-
4dd
4dd
2.cc
4cc
1dd
1.cc
=-
2b-
0a
2b-
2b-
4cc
4dd
!!linebreak:original
=-
4cc
4cc
2b-
4r
4cc
4dd
4ee
4dd
4dd
2cc#
2cc#
2.dd
4dd
2dd
2dd
2.ee
=-
4ee
2ee
1ff
2dd
4cc#
4cc#
1dd
2cc#
1dd
2r
2a
=-
!!linebreak:original
2.b#
4b#
2b#
2cc
2.cc
4cc
2cc
1dd
2cc
2a
2g
=-
1a
1b-
2.dd
4cc
4b-
4a
1g
2g
2cc
2dd
=-
2ee-
2dd
2.ee-
4dd
1.cc
4bn
4a
0bn
=-
!!linebreak:original
1b-
1.a
2a
2.b-
4cc
=-
2dd
2cc
1b-
1a
1cc
=-
1cc
2dd
2.cc
4cc
2b-
1a
=-
1b-
1bn
2cc
2.a
4a
2g
=-
1f
2.e
4e
1f
2a
2a
=-
!!pagebreak:original
1.dd
2cc
2.b-
4b-
2a
2.cc
4cc
4cc
4cc
2.cc
4cc
=-
2cc
1b-
2cc
1.dd
4cc
4b-
=-
1cc#
1dd
2r
2.bn
4b
2cc
=-
2.cc
4cc
4cc
4a
1dd
2cc
1dd
=-
1.a
2b-
2cc
2dd
4cc
4b-
1b-
=-
!!linebreak:original
2a
2b-
1dd
2cc
2b-
2g
1cc
=-
1cc
2bn
1.cc
2cc
1cc
=-
2r
2dd
4cc
4cc
2b-
2a
2ff
4ee
4ee
4dd
4dd
=-
2cc
2.cc
4cc
2a
2a
2f
4f
4d
2d
=-
2d
2.d
4d
4d
4e-
2f
2f
2.a
4a
!!linebreak:original
=-
2a
2b-
2g
2g
2a
1b-
2a
=-
2b-
2ff
2ff
2.ee
4ee
2dd
4cc#
2dd
4cc#
=-
1dd
2r
2dd
4cc
4a
2b-
4a
4a
2g
=-
4r
4dd
4b-
4g
4a
4b-
1cc
2bn
2cc
2cc
=-
!!linebreak:original
2cc
2cc
1dd
2cc
2b-
1a
=-
1b-
2r
2g
2.cc
4b-
4a
4g
2f
=-
2cc
2cc
2.ff
4ee
4dd
4cc
2b-
4g
4g
1g
=-
2g
2g
2.cc
4b-
4a
4g
1f
2f
=-
2b-
4a
4g
2f#
1g
2f#
0g
=-
!!linebreak:original
1a
2a
2a
1.b-
2b-
=-
1cc
2r
2dd
2.cc#
4cc
2dd
1dd
=-
4cc
4b-
1cc#
1dd
2r
1.ff
=-
2ee
2dd
2cc
0b-
0a
=-
1.g
2g
1a
2r
2a
=-
1bn
2cc
1cc
2b
2.a
4a
=-
0bn
=-
!!linebreak:original
0b-
0a
=-
2.b-
4cc
2dd
4cc
4b-
0cc
=-
2.dd
4ee
1.ff
4ee
4dd
1ee
=-
2dd
2.a
4a
2bn
2cc
2g
2.a
4a
=-
1b-
2r
1dd
2dd
1dd
=-
1cc
2cc
2dd
4cc
4b-
4a
4g
2a
1b-
=-
2a
2b-
2.dd
4dd
2dd
1cc
2cc
=-
2.ee-
4ee-
2dd
1dd
0dd
=-
!!pagebreak:original
*M3/2
1dd
1dd
1dd
=-
0cc
1cc
=-
1r
0a
0b-
1r
=-
1a
1a
1a
=-
0g
1g
=-
1r
0e
0f
1r
=-
!!linebreak:original
1a
1a
1bn
=-
0cc
1g
=-
0b-
1f
=-
1a
1a
1a
=-
0dd
1dd
=-
0dd
0dd
0ee-
=-
1b-
0cc
0b-
=-
!!linebreak:original
*met(c)
*M4/4
1.b-
2b-
1dd
2cc
2b-
=-
1a
2b-
1dd
2dd
1.ff
2ff
2ee
1dd
2cc#
1dd
=-
1r
2r
2g
2.cc
4cc
1a
=-
!!linebreak:original
2dd
2cc
2.b-
4b-
2a
1a
2.dd
4dd
1b-
1ee-
2dd
2.cc
4cc
=-
1dd
1bn
2.cc
4cc
1cc
=-
0b-
0.a
2a
0b-
=-
!!linebreak:original
1b-
2b-
1dd
2cc
1.dd
2dd
2dd
4dd
4dd
=-
4dd
4dd
1b-
2a
1b-
2r
1ff
2ee-
2dd
2cc
!!linebreak:original
=-
1dd
2dd
1dd
2dd
2.b-
4a
=-
1g
1f
1g
2g
4g
4g
=-
2g
2a
1d
1e
1.a
2g
4a
4a
2g
=-
2g
2f#
0g
=-
!!pagebreak:original
*met(c|)
*M2/2
0dd
1cc#
1dd
=-
1.cc#
2dd
2dd
4dd
4dd
2ee-
2cc
=-
2dd
2dd
1dd
2dd
2dd
2b-
0a
2a
!!linebreak:original
=-
1a
2dd
1.cc
2b-
1a
2b-
2.dd
4dd
2b-
1g
1cc
=-
1g
4a
4b-
1cc
2bn
2.ee-
4ee-
=-
2cc
2bn
2.cc
4dd
1ee-
0dd
=-=
*-
!!title: @{OTL}, @{GTL}, ed. @{ENC}
!!!pag:
!!!GTL: Hymnbook C
!!!EFL: 
!!!YEM: Creative Commons CC/BY/NC/SA 4.0
!!!ENC: Marcin Konik
!!!END: 2015-0m-dd
!!!EED: Marcin Konik
!!!EEV: 
!!!ONB: Encoded in vim by Marcin Konik
!!!CharacterEncoding: utf-8
!!!RDF**kern: l=long note in original notation
!!!RDF**kern: i=editorial accidental
!!muse2ps: z14jc180F
!!!COM: Anonim
!!!CDT: [?]
!!!TXO: Polish
!!!ODT: 
!!!GTL: Hymnbook C
!!!ARL: Opactwo św. Wojciecha, Staniątki 
!!!voices:	1
